assets/icons/home_colored.svg

<svg fill="none" height="512" viewBox="0 0 512 512" width="512" xmlns="http://www.w3.org/2000/svg" xmlns:xlink="http://www.w3.org/1999/xlink"><clipPath id="a"><path d="m0 0h512v512h-512z"/></clipPath><g clip-path="url(#a)" fill="#000"><path d="m512 244v8c-8.08 14.69-18.54 16.1-30.48 4.08-2.87-2.89-5.62-5.9-8.43-8.85l-1.1.67v199.75c.01 28.64-19.68 48.35-48.29 48.35h-335.39c-28.58 0-48.31-19.75-48.31-48.34v-200c-5.21 3.74-9 8-13.09 11.87-1.6222 1.572-3.5634 2.777-5.6921 3.534-2.1287.756-4.3951 1.046-6.6455.849-2.2505-.196-4.4325-.874-6.39807-1.987-1.96559-1.114-3.66884-2.637-4.99433-4.466-1.15931-1.76-2.22091-3.583-3.18-5.46v-8c2.89-3.77 5.42-7.9 8.73-11.25 19.55-19.79 39.28-39.4 59-59.07 44.987-44.993 89.987-89.9932 135-134.9999 15.15-15.3 33.46-23.14 55.02-22.68 20.78.47 38.05 8.91 52.72 23.64 64.187 64.4199 128.457 128.7529 192.81 192.9999 3.33 3.36 5.83 7.56 8.72 11.36zm-176 220h87.5c11.14 0 16.53-5.41 16.54-16.54 0-76.18-.04-152.357-.12-228.53-.106-2.702-1.169-5.279-3-7.27-49.613-49.86-99.313-99.63-149.1-149.3099-19.35-19.35-44.3-19.34-63.62 0-49.62 49.6129-99.253 99.2129-148.9 148.7999-1.137 1.046-2.0301 2.328-2.616 3.758-.5858 1.429-.8501 2.969-.774 4.512.0933 75.84.1167 151.68.07 227.52.02 11.82 5.23 17.06 17.02 17.06h82c1.6 0 3.19-.14 5-.23v-6.43-119c0-28.22 22.19-50.26 50.45-50.32 19.333-.04 38.667-.04 58 0 29.66 0 51.48 21.75 51.5 51.29v118zm-32.22-.21c.12-1.05.22-1.55.22-2v-123.45c0-10.6-7.77-18.26-18.34-18.31-19-.09-38 0-57 0-13.56 0-20.67 7-20.68 20.51v123.36z"/><path d="m303.77 463.8h-95.77v-5.36-118c0-13.44 7.11-20.44 20.67-20.44 19 0 38-.06 57 0 10.57.05 18.32 7.71 18.34 18.31.073 41.146.073 82.296 0 123.45-.01.49-.12.99-.24 2.04z"/></g></svg>

<svg width="512" height="512" viewBox="0 0 512 512" fill="none" xmlns="http://www.w3.org/2000/svg">
<g clip-path="url(#clip0_235_2244)">
<path d="M512 244V252C503.92 266.69 493.46 268.1 481.52 256.08C478.65 253.19 475.9 250.18 473.09 247.23L471.99 247.9V447.65C472 476.29 452.31 496 423.7 496H88.31C59.73 496 40 476.25 40 447.66V247.66C34.79 251.4 31 255.66 26.91 259.53C25.2878 261.102 23.3466 262.307 21.2179 263.064C19.0892 263.82 16.8228 264.11 14.5724 263.913C12.3219 263.717 10.1399 263.039 8.17433 261.926C6.20874 260.812 4.50549 259.289 3.18 257.46C2.02069 255.7 0.95909 253.877 0 252L0 244C2.89 240.23 5.42 236.1 8.73 232.75C28.28 212.96 48.01 193.35 67.73 173.68C112.717 128.687 157.717 83.6868 202.73 38.6801C217.88 23.3801 236.19 15.5401 257.75 16.0001C278.53 16.4701 295.8 24.9101 310.47 39.6401C374.657 104.06 438.927 168.393 503.28 232.64C506.61 236 509.11 240.2 512 244ZM336 464H423.5C434.64 464 440.03 458.59 440.04 447.46C440.04 371.28 440 295.103 439.92 218.93C439.814 216.228 438.751 213.651 436.92 211.66C387.307 161.8 337.607 112.03 287.82 62.3501C268.47 43.0001 243.52 43.0101 224.2 62.3501C174.58 111.963 124.947 161.563 75.3 211.15C74.163 212.196 73.2699 213.478 72.684 214.908C72.0982 216.337 71.8339 217.877 71.91 219.42C72.0033 295.26 72.0267 371.1 71.98 446.94C72 458.76 77.21 464 89 464H171C172.6 464 174.19 463.86 176 463.77V457.34V338.34C176 310.12 198.19 288.08 226.45 288.02C245.783 287.98 265.117 287.98 284.45 288.02C314.11 288.02 335.93 309.77 335.95 339.31V457.31L336 464ZM303.78 463.79C303.9 462.74 304 462.24 304 461.79V338.34C304 327.74 296.23 320.08 285.66 320.03C266.66 319.94 247.66 320.03 228.66 320.03C215.1 320.03 207.99 327.03 207.98 340.54V463.9L303.78 463.79Z" fill="black"/>
<path d="M303.77 463.8H208V458.44V340.44C208 327 215.11 320 228.67 320C247.67 320 266.67 319.94 285.67 320C296.24 320.05 303.99 327.71 304.01 338.31C304.083 379.456 304.083 420.606 304.01 461.76C304 462.25 303.89 462.75 303.77 463.8Z" fill="black"/>
</g>
<defs>
<clipPath id="clip0_235_2244">
<rect width="512" height="512" fill="white"/>
</clipPath>
</defs>
</svg>
